X: 093
M: 6/8
L: 1/8
K: G
E |\
|: c |\
(Bc/d/).d dBG | (cd/e/).e efg | (Bc/d/).d dBG | AFD D2c |\
(Bc/d/).d dBG | cde efg | dBG A2G | E3 G2 :|


